svg/ionicons/today-sharp.svg

<svg xmlns="http://www.w3.org/2000/svg" width="512" height="512" viewBox="0 0 512 512"><path d="M32 456a24 24 0 0024 24h400a24 24 0 0024-24V176H32Zm80-238.86a9.14 9.14 0 019.14-9.14h109.72a9.14 9.14 0 019.14 9.14v109.72a9.14 9.14 0 01-9.14 9.14H121.14a9.14 9.14 0 01-9.14-9.14ZM456 64h-55.92V32h-48v32H159.92V32h-48v32H56a23.8 23.8 0 00-24 23.77V144h448V87.77A23.8 23.8 0 00456 64"/></svg>

<svg xmlns="http://www.w3.org/2000/svg" viewBox="0 0 512 512"><path d="M32,456a24,24,0,0,0,24,24H456a24,24,0,0,0,24-24V176H32Zm80-238.86a9.14,9.14,0,0,1,9.14-9.14H230.86a9.14,9.14,0,0,1,9.14,9.14V326.86a9.14,9.14,0,0,1-9.14,9.14H121.14a9.14,9.14,0,0,1-9.14-9.14Z"/><path d="M456,64H400.08V32h-48V64H159.92V32h-48V64H56A23.8,23.8,0,0,0,32,87.77V144H480V87.77A23.8,23.8,0,0,0,456,64Z"/></svg>
